**kern	**kern	**dynam
*part1	*part1	*part1
*staff2	*staff1	*
*I"Piano	*	*
*clefF4	*clefG2	*
*k[f#]	*k[f#]	*
=1	=1	=1
1CC 1AA-X 1C	1e-X 1a-X 1ee-X	.
=	=	=
[1DD [1AAn [1D	([1d 1gn [1a [1dd	.
=	=	=
2.DD] 2.AA] 2.D]	2.d]) 2.f# 2.a] 2.dd]	.
4r	4r	.
=	=	=
(12GGL	(2b	p
12D	.	.
12GJ	.	.
12BL	.	.
12d>	.	.
12gJ>)	.	.
2ryy	[2dd	.
=	=	=
1r	1dd])	.
=	=	=
*	*^	*
(12GGL	(2ee	4e 4b	.
12D	.	.	.
12GJ	.	.	.
*	*v	*v	*
12BL	.	.
12d	.	.
12gJ>)	.	.
[2gg>	2reyy	.
=	=	=
2r	2gg]	>
2e 2g	2b) 2ee 2bb	.
=	=	=
1d; 1g 1b	1dd; 1gg 1ddd	] pp
==	==	==
*-	*-	*-
!!!system-decoration: {(s1,s2)}
!!!RDF**kern: > = above
